ci/cil-calendar-check.svg

<svg xmlns="http://www.w3.org/2000/svg" viewBox="0 0 512 512" height="1em" width="1em">
  <path fill="var(--ci-primary-color, currentColor)" d="M472 96h-88V40h-32v56H160V40h-32v56H40a24.028 24.028 0 0 0-24 24v336a24.028 24.028 0 0 0 24 24h432a24.028 24.028 0 0 0 24-24V120a24.028 24.028 0 0 0-24-24Zm-8 352H48V128h80v40h32v-40h192v40h32v-40h80Z" class="ci-primary"/>
  <path fill="var(--ci-primary-color, currentColor)" class="ci-primary" d="m243.397 313.373-54.385-54.385-22.627 22.628 77.012 77.011 125.615-125.615-22.628-22.627-102.987 102.988z"/>
</svg>

<svg xmlns="http://www.w3.org/2000/svg" viewBox="0 0 512 512" height="1em" width="1em">
  <path fill="var(--ci-primary-color, currentColor)" d="M472,96H384V40H352V96H160V40H128V96H40a24.028,24.028,0,0,0-24,24V456a24.028,24.028,0,0,0,24,24H472a24.028,24.028,0,0,0,24-24V120A24.028,24.028,0,0,0,472,96Zm-8,352H48V128h80v40h32V128H352v40h32V128h80Z" class="ci-primary"/>
  <polygon fill="var(--ci-primary-color, currentColor)" points="243.397 313.373 189.012 258.988 166.385 281.616 243.397 358.627 369.012 233.012 346.384 210.385 243.397 313.373" class="ci-primary"/>
</svg>
